X: 32
T:American Set (1)
M:4/4
L:1/4
R:Reel
N:http://www.lesession.co.uk
Z:Steve Mansfield 1998-2001
K:D
F>G F/E/D/F/ | AF ED | E>F E>F | GF ED | 
F>G F/E/D/F/ | AF ED | EF/G/ FE | D4 :| 
d2 f>e | dB A2 | dB AF | ED D2 | 
d2 f>e | dB A2 | dB AF | ED DB |
=c2 B2 | A3 B | =cd =cB | A3 B | 
=c2 B2 | A3 B | =cd =cB |AG F2 ||
<end>
<start>
